X: 3872
T: Black Rogue, The
R: jig
M: 6/8
K: Amixolydian
|:d|cA=c BGB|=cAA A2d|cA=c BGB|AFD D2d|
cA=c BGB|=cAA AFD|G3 BGB|AFD D3:|
|:f3 g3|afd cBA|f3 g3|afd d(3efg|
agf g2e|fed e2d|cA=c BGB|AFD D3:|

